icons/ammo/rocket.svg

<svg xmlns="http://www.w3.org/2000/svg" xmlns:xlink="http://www.w3.org/1999/xlink" width="128pt" height="127pt" viewBox="0 0 128 127" version="1.1">
<g id="surface1">
<path d="M 64.601562 55.058594 L 65.402344 56.464844 L 82.851562 73.347656 L 84.65625 74.550781 L 86.460938 75.355469 L 93.28125 77.367188 L 95.085938 78.167969 L 96.890625 79.574219 L 127.574219 110.320312 L 127.976562 111.527344 L 126.972656 112.332031 L 123.363281 113.535156 L 121.558594 113.535156 L 119.753906 112.53125 L 111.933594 104.492188 L 110.328125 104.089844 L 108.722656 104.492188 L 108.523438 105.097656 L 119.152344 115.546875 L 119.554688 116.75 L 119.152344 118.160156 L 117.949219 118.761719 L 116.546875 118.160156 L 105.914062 107.707031 L 105.515625 107.910156 L 104.914062 109.316406 L 105.515625 110.722656 L 113.535156 118.960938 L 114.339844 120.367188 L 114.339844 122.378906 L 113.335938 125.996094 L 112.332031 127 L 111.128906 126.597656 L 80.445312 95.652344 L 79.242188 94.042969 L 78.238281 92.234375 L 76.433594 85.605469 L 75.429688 83.59375 L 74.226562 81.988281 L 56.378906 65.109375 C 55.710938 64.304688 54.773438 64.304688 53.570312 65.109375 L 50.964844 67.71875 C 50.695312 68.253906 50.230469 68.523438 49.558594 68.523438 C 48.890625 68.523438 48.421875 68.253906 48.15625 67.71875 L 39.734375 59.480469 C 38.796875 58.273438 38.730469 57.40625 39.53125 56.867188 C 40.066406 55.929688 39.867188 55.058594 38.929688 54.257812 L 3.433594 18.488281 C 2.363281 17.683594 1.828125 16.476562 1.828125 14.871094 L 0.0234375 1.808594 C 0.0234375 0.601562 0.691406 0 2.027344 0 L 15.265625 1.609375 C 16.46875 1.609375 17.671875 2.144531 18.875 3.214844 L 54.375 38.984375 L 56.980469 39.183594 L 59.585938 39.585938 L 68.011719 47.824219 C 68.8125 48.898438 68.8125 49.902344 68.011719 50.839844 L 65.402344 53.652344 L 64.601562 55.058594 "/>
</g>
</svg>

<svg xmlns="http://www.w3.org/2000/svg" width="128pt" height="127pt" viewBox="0 0 128 127"><path d="m64.602 55.059.8 1.406 17.45 16.883 1.804 1.203 1.805.804 6.82 2.012 1.805.801 1.805 1.406 30.683 30.746.403 1.207-1.004.805-3.61 1.203h-1.804l-1.805-1.004-7.82-8.039-1.606-.402-1.605.402-.2.606 10.63 10.449.402 1.203-.403 1.41-1.203.602-1.402-.602-10.633-10.453-.398.203-.602 1.406.602 1.407 8.02 8.238.804 1.406v2.012l-1.004 3.617-1.004 1.004-1.203-.402-30.684-30.946-1.203-1.609-1.004-1.809-1.804-6.629-1.004-2.011-1.203-1.606L56.379 65.11q-1.003-1.206-2.809 0l-2.605 2.61c-.27.535-.735.804-1.406.804q-1.003-.001-1.403-.804l-8.422-8.239c-.937-1.207-1.004-2.074-.203-2.613q.803-1.406-.601-2.61L3.434 18.489q-1.606-1.207-1.606-3.617L.023 1.81Q.023-.001 2.027 0l13.239 1.61q1.804 0 3.609 1.605l35.5 35.77 2.605.199 2.606.402 8.426 8.238q1.2 1.61 0 3.016l-2.61 2.812z"/></svg>
